X:1
T:Ahnfelt, 76.76 D
T:Ahnfelt, 76.76 D
T:Oskar Ahnfelt, 1872
T:Public Domain Courtesy of the Cyber Hymnal™
C:Oskar Ahnfelt, 1872
Z:Public Domain
Z:Courtesy of the Cyber Hymnal™
%%score ( 1 2 ) ( 3 4 )
L:1/8
Q:1/4=108
M:6/8
K:Eb
V:1 treble 
V:2 treble 
V:3 bass 
V:4 bass 
V:1
 B, | [B,E]2 [B,E] [B,E]2 [B,G] | [EB]3 [EG]2 [Ec] | [EB]2 [EB] [DA]2 [DF] | [EG]3- [EG]2 B, | %5
 [B,E]2 [B,E] [B,E]2 [B,G] | [EB]3 [EG]2 [Ec] | [EB]2 [EB] [DA]2 [B,D] | [B,E]3- [B,E]2 [GB] | %9
 [GB]2 [GB] (Bc)[Ad] | [Ge]3 [EG]2 [Ec] | [EB]2 [EB] [DA]2 [DF] | [EG]3- [EG]2 [GB] | %13
 [GB]2 [GB] (Bc)[Ad] | [Ge]3 [EG]2 [Ec] | [EB]2 [EB] [DA]2 [B,D] | [B,E]3- [B,E]2 |] %17
V:2
 B, | x6 | x6 | x6 | x5 B, | x6 | x6 | x6 | x6 | x3 A2 x | x6 | x6 | x6 | x3 A2 x | x6 | x6 | x5 |] %17
V:3
 B, | [E,G,]2 [E,G,] [E,G,]2 [E,G,] | [E,G,]3 [E,B,]2 [A,,A,] | [B,,G,]2 [B,,G,] [B,,F,]2 [B,,B,] | %4
 [E,B,]3- [E,B,]2 [E,G,] | [E,G,]2 [E,G,] [E,G,]2 [E,G,] | [E,G,]3 [E,B,]2 [A,,A,] | %7
 [B,,G,]2 [B,,G,] [B,,F,]2 [B,,A,] | [E,G,]3- [E,G,]2 [E,B,] | B,2 B, [B,,B,]2 [B,,B,] | %10
 [E,B,]3 [E,B,]2 [A,,A,] | [B,,G,]2 [B,,G,] [B,,F,]2 [B,,B,] | [E,B,]3- [E,B,]2 [E,B,] | %13
 B,2 B, [B,,B,]2 [B,,B,] | [E,B,]3 [E,B,]2 [A,,A,] | [B,,G,]2 [B,,G,] [B,,F,]2 [B,,A,] | %16
 [E,G,]3- [E,G,]2 |] %17
V:4
 B, | x6 | x6 | x6 | x6 | x6 | x6 | x6 | x6 | B,2 B, x3 | x6 | x6 | x6 | B,2 B, x3 | x6 | x6 | %16
 x5 |] %17

